src/assets/svg/icons/fa/nuevos/classic/duotone/calendar-circle-minus classic duotone.svg

<svg xmlns="http://www.w3.org/2000/svg" viewBox="0 0 576 512"><!--! Font Awesome Pro 6.4.0 by @fontawesome - https://fontawesome.com License - https://fontawesome.com/license (Commercial License) Copyright 2023 Fonticons, Inc. --><defs><style>.fa-secondary{opacity:.4}</style></defs><path class="fa-primary" d="M432 512a144 144 0 1 0 0-288 144 144 0 1 0 0 288zm64-128l-128 0c-8.8 0-16-7.2-16-16s7.2-16 16-16H496c8.8 0 16 7.2 16 16s-7.2 16-16 16z"/><path class="fa-secondary" d="M96 32c0-17.7 14.3-32 32-32s32 14.3 32 32V64H288V32c0-17.7 14.3-32 32-32s32 14.3 32 32V64h48c26.5 0 48 21.5 48 48v48H0V112C0 85.5 21.5 64 48 64H96V32zM416 192.7c-89.7 8.1-160 83.5-160 175.3c0 59.5 29.6 112.1 74.8 144H48c-26.5 0-48-21.5-48-48V192H416v.7z"/></svg>

<svg xmlns="http://www.w3.org/2000/svg" viewBox="0 0 576 512"><defs><style>.fa-secondary{opacity:.4}</style></defs><path class="fa-primary" d="M288 368C288 288.5 352.5 224 432 224C511.5 224 576 288.5 576 368C576 447.5 511.5 512 432 512C352.5 512 288 447.5 288 368zM496 383.1C504.8 383.1 512 376.8 512 367.1C512 359.2 504.8 351.1 496 351.1H368C359.2 351.1 352 359.2 352 367.1C352 376.8 359.2 383.1 368 383.1H496z"/><path class="fa-secondary" d="M96 32C96 14.33 110.3 0 128 0C145.7 0 160 14.33 160 32V64H288V32C288 14.33 302.3 0 320 0C337.7 0 352 14.33 352 32V64H400C426.5 64 448 85.49 448 112V160H0V112C0 85.49 21.49 64 48 64H96V32zM416 192.7C326.3 200.8 256 276.2 256 368C256 427.5 285.6 480.1 330.8 512H48C21.49 512 0 490.5 0 464V192H416V192.7z"/></svg>
